images/icons/instagram.svg

<svg width="40" height="40" viewBox="0 0 40 40" fill="none" xmlns="http://www.w3.org/2000/svg">
<mask id="mask0_257_265" style="mask-type:luminance" maskUnits="userSpaceOnUse" x="0" y="0" width="40" height="40">
<path d="M0 0H40V40H0V0Z" fill="white"/>
</mask>
<g mask="url(#mask0_257_265)">
<path d="M11.7173 0.140087C9.58927 0.240087 8.13627 0.580087 6.86527 1.08009C5.53163 1.5839 4.32416 2.37296 3.32727 3.39209C2.31185 4.39237 1.52693 5.60218 1.02727 6.93709C0.534267 8.21009 0.200267 9.66409 0.107267 11.7941C0.013267 13.9231 -0.00773304 14.6071 0.00226696 20.0381C0.012267 25.4701 0.037267 26.1511 0.140267 28.2841C0.242267 30.4121 0.580267 31.8641 1.08027 33.1351C1.58434 34.4686 2.37337 35.676 3.39227 36.6731C4.39322 37.6891 5.60414 38.4741 6.94027 38.9731C8.21227 39.4651 9.66727 39.8001 11.7963 39.8931C13.9243 39.9861 14.6103 40.0081 20.0393 39.9981C25.4693 39.9881 26.1523 39.9631 28.2863 39.8621C30.4193 39.7611 31.8643 39.4201 33.1363 38.9231C34.4694 38.4184 35.6765 37.6291 36.6733 36.6101C37.6888 35.6091 38.4737 34.3986 38.9733 33.0631C39.4653 31.7901 39.8003 30.3361 39.8933 28.2081C39.9863 26.0741 40.0083 25.3921 39.9973 19.9621C39.9873 14.5321 39.9623 13.8511 39.8613 11.7181C39.7603 9.58509 39.4213 8.13609 38.9223 6.86509C38.4176 5.53191 37.6286 4.32461 36.6103 3.32709C35.6102 2.3105 34.3994 1.52541 33.0633 1.02709C31.7903 0.536087 30.3363 0.200087 28.2073 0.108087C26.0783 0.0170874 25.3933 -0.00691265 19.9623 0.00308735C14.5303 0.0130874 13.8503 0.0370874 11.7173 0.141087V0.140087ZM11.9503 36.2951C10.0003 36.2111 8.94227 35.8861 8.23627 35.6151C7.36732 35.2955 6.58056 34.7861 5.93327 34.1241C5.23027 33.4271 4.79827 32.7591 4.43327 31.8271C4.15927 31.1211 3.82927 30.0641 3.73827 28.1141C3.63827 26.0061 3.61827 25.3741 3.60627 20.0341C3.59427 14.6941 3.61527 14.0621 3.70727 11.9541C3.79027 10.0051 4.11727 8.94509 4.38727 8.24009C4.74727 7.30409 5.18127 6.64009 5.87927 5.93709C6.57727 5.23409 7.24327 4.80209 8.17627 4.43709C8.88127 4.16209 9.93827 3.83409 11.8883 3.74209C13.9973 3.64209 14.6283 3.62209 19.9683 3.61009C25.3063 3.59809 25.9403 3.61809 28.0503 3.71109C29.9983 3.79609 31.0593 4.11909 31.7633 4.39109C32.6983 4.75109 33.3633 5.18409 34.0663 5.88309C34.7693 6.58309 35.2023 7.24609 35.5663 8.18109C35.8423 8.88409 36.1703 9.94109 36.2623 11.8911C36.3623 14.0011 36.3853 14.6331 36.3943 19.9711C36.4043 25.3101 36.3853 25.9441 36.2933 28.0511C36.2083 30.0011 35.8843 31.0611 35.6133 31.7671C35.2533 32.7011 34.8193 33.3671 34.1203 34.0691C33.4223 34.7721 32.7573 35.2051 31.8233 35.5691C31.1193 35.8441 30.0603 36.1721 28.1133 36.2651C26.0033 36.3651 25.3723 36.3851 20.0313 36.3971C14.6903 36.4081 14.0603 36.3871 11.9513 36.2951M28.2553 9.31109C28.2558 9.62626 28.3184 9.93824 28.4395 10.2292C28.5606 10.5202 28.7378 10.7845 28.961 11.007C29.1843 11.2295 29.4491 11.4058 29.7405 11.5259C30.0319 11.6461 30.3441 11.7076 30.6593 11.7071C30.9744 11.7066 31.2864 11.644 31.5774 11.5229C31.8684 11.4018 32.1327 11.2245 32.3552 11.0013C32.5776 10.7781 32.754 10.5132 32.8741 10.2218C32.9942 9.93045 33.0558 9.61826 33.0553 9.30309C33.0542 8.66657 32.8003 8.05654 32.3495 7.6072C31.8987 7.15787 31.2878 6.90603 30.6513 6.90709C30.0147 6.90815 29.4047 7.16202 28.9554 7.61286C28.506 8.0637 28.2542 8.67457 28.2553 9.31109ZM9.73027 20.0201C9.74127 25.6911 14.3473 30.2791 20.0183 30.2681C25.6893 30.2581 30.2803 25.6511 30.2693 19.9791C30.2593 14.3071 25.6513 9.71909 19.9793 9.72909C14.3073 9.74109 9.71927 14.3481 9.72927 20.0191L9.73027 20.0201ZM13.3323 20.0121C13.3305 19.1366 13.5012 18.2693 13.8346 17.4597C14.168 16.6502 14.6576 15.9142 15.2754 15.2939C16.5232 14.041 18.2176 13.3352 19.9858 13.3316C21.754 13.328 23.4512 14.027 24.704 15.2748C25.9568 16.5225 26.6627 18.2169 26.6663 19.9851C26.668 20.8606 26.4973 21.7279 26.1639 22.5375C25.8305 23.347 25.3409 24.083 24.7231 24.7033C23.4753 25.9562 21.781 26.662 20.0128 26.6656C18.2446 26.6692 16.5474 25.9702 15.2945 24.7224C14.0417 23.4746 13.3358 21.7803 13.3323 20.0121Z" fill="#2E2C31"/>
</g>
</svg>

<svg xmlns="http://www.w3.org/2000/svg" width="40" height="40" fill="none"><g clip-path="url(#a)"><path fill="#000" d="M11.717.14c-2.128.1-3.581.44-4.852.94a9.788 9.788 0 0 0-3.538 2.312 9.797 9.797 0 0 0-2.3 3.545C.534 8.21.2 9.664.107 11.794c-.094 2.129-.115 2.813-.105 8.244.01 5.432.035 6.113.138 8.246.102 2.128.44 3.58.94 4.851a9.797 9.797 0 0 0 2.312 3.538 9.787 9.787 0 0 0 3.548 2.3c1.272.492 2.727.827 4.856.92 2.128.093 2.814.115 8.243.105 5.43-.01 6.113-.035 8.247-.136 2.133-.101 3.578-.442 4.85-.939a9.802 9.802 0 0 0 3.537-2.313 9.802 9.802 0 0 0 2.3-3.547c.492-1.273.827-2.727.92-4.855.093-2.134.115-2.816.104-8.246-.01-5.43-.035-6.111-.136-8.244s-.44-3.582-.939-4.853a9.819 9.819 0 0 0-2.312-3.538 9.76 9.76 0 0 0-3.547-2.3C31.79.536 30.336.2 28.207.108c-2.129-.091-2.814-.115-8.245-.105-5.432.01-6.112.034-8.245.138Zm.233 36.155c-1.95-.084-3.008-.409-3.714-.68a6.228 6.228 0 0 1-2.303-1.491c-.703-.697-1.135-1.365-1.5-2.297-.274-.706-.604-1.763-.695-3.713-.1-2.108-.12-2.74-.132-8.08-.012-5.34.009-5.972.101-8.08.083-1.949.41-3.009.68-3.714.36-.936.794-1.6 1.492-2.303.698-.703 1.364-1.135 2.297-1.5.705-.275 1.762-.603 3.712-.695 2.109-.1 2.74-.12 8.08-.132 5.338-.012 5.972.008 8.082.101 1.948.085 3.009.408 3.713.68.935.36 1.6.793 2.303 1.492.703.7 1.136 1.363 1.5 2.298.276.703.604 1.76.696 3.71.1 2.11.123 2.742.132 8.08.01 5.339-.009 5.973-.101 8.08-.085 1.95-.409 3.01-.68 3.716-.36.934-.794 1.6-1.493 2.302-.698.703-1.363 1.136-2.297 1.5-.704.275-1.763.603-3.71.696-2.11.1-2.741.12-8.082.132-5.341.011-5.971-.01-8.08-.102M28.255 9.311a2.4 2.4 0 1 0 4.8-.008 2.4 2.4 0 0 0-4.8.008ZM9.73 20.02c.011 5.671 4.617 10.259 10.288 10.248 5.671-.01 10.262-4.617 10.251-10.289-.01-5.672-4.618-10.26-10.29-10.25-5.672.012-10.26 4.619-10.25 10.29Zm3.602-.008a6.667 6.667 0 1 1 13.334-.027 6.667 6.667 0 0 1-13.334.027Z"/></g><defs><clipPath id="a"><path fill="#fff" d="M0 0h40v40H0z"/></clipPath></defs></svg>
